X: 1
T: Conway's
R: reel
M: 4/4
L: 1/8
K: Gmaj
gfdc BdGA|(3BAG DG Bcde|=f2ef dcBc|dgg^f dfaf|
gfdc BdGA|(3BAG DG Bcde|=f2ef dgge|^fdcA BGG2:|
dGBd GDD2|B,DGA (3BAG gf|eBB2 GBge|1 (3fed BG ABce|
(3ded Bd GDD2|B,DGA Bdgf|ecc2 Acag|fdcA BGG2:|
[2 (3fed BG AGEC|(3DED B,D G,2 B,D|G,2 B,D GBdg|ecc2 Acag|fdcA BGG2||

